profiler_gui/icons/save.svg

<?xml version="1.0" encoding="UTF-8" standalone="no"?>
<!-- Generator: Adobe Illustrator 19.0.0, SVG Export Plug-In . SVG Version: 6.00 Build 0)  -->

<svg
   xmlns:dc="http://purl.org/dc/elements/1.1/"
   xmlns:cc="http://creativecommons.org/ns#"
   xmlns:rdf="http://www.w3.org/1999/02/22-rdf-syntax-ns#"
   xmlns:svg="http://www.w3.org/2000/svg"
   xmlns="http://www.w3.org/2000/svg"
   xmlns:sodipodi="http://sodipodi.sourceforge.net/DTD/sodipodi-0.dtd"
   xmlns:inkscape="http://www.inkscape.org/namespaces/inkscape"
   version="1.1"
   id="Layer_1"
   x="0px"
   y="0px"
   viewBox="0 0 512 512"
   style="enable-background:new 0 0 512 512;"
   xml:space="preserve"
   inkscape:version="0.91 r13725"
   sodipodi:docname="save.svg"><metadata
     id="metadata49"><rdf:RDF><cc:Work
         rdf:about=""><dc:format>image/svg+xml</dc:format><dc:type
           rdf:resource="http://purl.org/dc/dcmitype/StillImage" /></cc:Work></rdf:RDF></metadata><defs
     id="defs47" /><sodipodi:namedview
     pagecolor="#ffffff"
     bordercolor="#666666"
     borderopacity="1"
     objecttolerance="10"
     gridtolerance="10"
     guidetolerance="10"
     inkscape:pageopacity="0"
     inkscape:pageshadow="2"
     inkscape:window-width="1293"
     inkscape:window-height="921"
     id="namedview45"
     showgrid="false"
     inkscape:zoom="0.4609375"
     inkscape:cx="256"
     inkscape:cy="256"
     inkscape:window-x="0"
     inkscape:window-y="0"
     inkscape:window-maximized="0"
     inkscape:current-layer="Layer_1" /><g
     id="g3"
     transform="matrix(0.87890453,0,0,0.87890625,30,32)"><g
       id="g5"><g
         id="g7"><path
           style="fill:#212121"
           d="M 506.513,98.709 413.291,5.486 C 409.78,1.974 405.014,0 400.047,0 L 385.77,0 c -3.448,0 -6.244,2.796 -6.244,6.244 l 0,151.114 c 0,10.345 -8.387,18.732 -18.732,18.732 l -209.598,0 c -10.345,0 -18.732,-8.387 -18.732,-18.732 l 0,-151.114 C 132.464,2.796 129.668,0 126.22,0 L 18.732,0 C 8.387,0 0,8.387 0,18.732 L 0,493.269 C 0,503.613 8.387,512 18.732,512 l 474.537,0 c 10.345,0 18.732,-8.387 18.732,-18.732 l 0,-381.314 C 512,106.987 510.027,102.221 506.513,98.709 Z M 400.554,410.226 c 0,10.345 -8.387,18.732 -18.732,18.732 l -251.644,0 c -10.345,0 -18.732,-8.387 -18.732,-18.732 l 0,-147.132 c 0,-10.345 8.387,-18.732 18.732,-18.732 l 251.644,0 c 10.345,0 18.732,8.387 18.732,18.732 l 0,147.132 z"
           id="path9"
           inkscape:connector-curvature="0" /><path
           style="fill:#f44336"
           d="m 176.172,126.138 159.647,0 c 3.449,0 6.244,-2.796 6.244,-6.244 l 0,-113.65 C 342.063,2.796 339.267,0 335.819,0 L 176.172,0 c -3.448,0 -6.244,2.796 -6.244,6.244 l 0,113.65 c 0,3.448 2.796,6.244 6.244,6.244 z M 275.346,46.27 c 0,-10.345 8.387,-18.732 18.732,-18.732 10.345,0 18.732,8.387 18.732,18.732 l 0,33.598 c 0,10.345 -8.387,18.732 -18.732,18.732 -10.345,0 -18.732,-8.387 -18.732,-18.732 l 0,-33.598 z"
           id="path11"
           inkscape:connector-curvature="0" /><path
           style="fill:#f44336"
           d="m 318.413,317.93 -124.827,0 c -10.345,0 -18.732,8.387 -18.732,18.732 0,10.345 8.387,18.732 18.732,18.732 l 124.828,0 c 10.345,0 18.73,-8.387 18.73,-18.732 0,-10.345 -8.386,-18.732 -18.731,-18.732 z"
           id="path13"
           inkscape:connector-curvature="0" /></g></g></g><g
     id="g15" /><g
     id="g17" /><g
     id="g19" /><g
     id="g21" /><g
     id="g23" /><g
     id="g25" /><g
     id="g27" /><g
     id="g29" /><g
     id="g31" /><g
     id="g33" /><g
     id="g35" /><g
     id="g37" /><g
     id="g39" /><g
     id="g41" /><g
     id="g43" /></svg>

<?xml version="1.0" encoding="iso-8859-1"?>
<!-- Generator: Adobe Illustrator 19.0.0, SVG Export Plug-In . SVG Version: 6.00 Build 0)  -->
<svg version="1.1" id="Layer_1" xmlns="http://www.w3.org/2000/svg" xmlns:xlink="http://www.w3.org/1999/xlink" x="0px" y="0px"
	 viewBox="0 0 512 512" style="enable-background:new 0 0 512 512;" xml:space="preserve">
<g>
	<g>
		<g>
			<path style="fill:#212121;" d="M506.513,98.709L413.291,5.486C409.78,1.974,405.014,0,400.047,0H385.77c-3.448,0-6.244,2.796-6.244,6.244v151.114
				c0,10.345-8.387,18.732-18.732,18.732H151.196c-10.345,0-18.732-8.387-18.732-18.732V6.244c0-3.448-2.796-6.244-6.244-6.244
				H18.732C8.387,0,0,8.387,0,18.732v474.537C0,503.613,8.387,512,18.732,512h474.537c10.345,0,18.732-8.387,18.732-18.732V111.954
				C512,106.987,510.027,102.221,506.513,98.709z M400.554,410.226c0,10.345-8.387,18.732-18.732,18.732H130.178
				c-10.345,0-18.732-8.387-18.732-18.732V263.094c0-10.345,8.387-18.732,18.732-18.732h251.644
				c10.345,0,18.732,8.387,18.732,18.732V410.226z"/>
			<path style="fill:#f44336;" d="M176.172,126.138h159.647c3.449,0,6.244-2.796,6.244-6.244V6.244c0-3.448-2.796-6.244-6.244-6.244H176.172
				c-3.448,0-6.244,2.796-6.244,6.244v113.65C169.928,123.342,172.724,126.138,176.172,126.138z M275.346,46.27
				c0-10.345,8.387-18.732,18.732-18.732s18.732,8.387,18.732,18.732v33.598c0,10.345-8.387,18.732-18.732,18.732
				s-18.732-8.387-18.732-18.732V46.27z"/>
			<path style="fill:#f44336;" d="M318.413,317.93H193.586c-10.345,0-18.732,8.387-18.732,18.732s8.387,18.732,18.732,18.732h124.828
				c10.345,0,18.73-8.387,18.73-18.732S328.758,317.93,318.413,317.93z"/>
		</g>
	</g>
</g>
<g>
</g>
<g>
</g>
<g>
</g>
<g>
</g>
<g>
</g>
<g>
</g>
<g>
</g>
<g>
</g>
<g>
</g>
<g>
</g>
<g>
</g>
<g>
</g>
<g>
</g>
<g>
</g>
<g>
</g>
</svg>
